svgs/light/file-audio.svg

<svg xmlns="http://www.w3.org/2000/svg" viewBox="0 0 384 512"><!--! Font Awesome Pro 6.3.0 by @fontawesome - https://fontawesome.com License - https://fontawesome.com/license (Commercial License) Copyright 2023 Fonticons, Inc. --><path d="M365.3 125.3l-106.5-106.5C246.7 6.742 230.5 0 213.5 0L64-.0001c-35.35 0-64 28.65-64 64l.0065 384c0 35.35 28.65 64 64 64H320c35.35 0 64-28.65 64-64v-277.5C384 153.5 377.3 137.3 365.3 125.3zM224 34.08c4.477 1.566 8.666 3.846 12.12 7.299l106.5 106.5C346.1 151.3 348.4 155.5 349.9 160H240C231.2 160 224 152.8 224 144V34.08zM352 448c0 17.64-14.36 32-32 32H64c-17.64 0-32-14.36-32-32V64c0-17.64 14.36-32 32-32h128v112C192 170.5 213.5 192 240 192H352V448zM182.8 249.5C177.2 246.9 170.5 247.8 165.8 251.7L122.2 288H80C71.16 288 64 295.2 64 304v64C64 376.8 71.16 384 80 384h42.22l43.53 36.3C168.7 422.7 172.3 424 176 424c2.312 0 4.625-.5 6.781-1.516C188.4 419.9 192 414.2 192 408v-144C192 257.8 188.4 252.1 182.8 249.5zM160 373.8l-21.75-18.14C135.4 353.3 131.8 352 128 352H96v-32h32c3.75 0 7.375-1.312 10.25-3.703L160 298.2V373.8zM288 336c0 31.42-15.38 60.86-41.16 78.83c-7.25 5.062-9.031 15.03-3.969 22.28c3.125 4.453 8.105 6.844 13.14 6.844c3.188 0 6.363-.9375 9.145-2.875C299.5 417.1 320 377.9 320 336s-20.51-81.1-54.86-105.1c-7.156-4.984-17.18-3.297-22.27 3.969c-5.062 7.25-3.27 17.22 3.98 22.28C272.6 275.2 288 304.6 288 336zM234.1 287.6c-6.844-5.547-16.91-4.594-22.5 2.266c-5.594 6.844-4.594 16.92 2.25 22.52C220.2 317.6 224 326.4 224 336s-3.781 18.42-10.12 23.61c-6.844 5.594-7.844 15.67-2.25 22.52C214.8 386 219.4 387.8 224 387.8c3.562 0 7.156-1.023 10.12-3.445C247.8 373.2 256 355.1 256 336S247.8 298.8 234.1 287.6z"/></svg>

<svg xmlns="http://www.w3.org/2000/svg" viewBox="0 0 384 512"><!-- Font Awesome Pro 6.0.0-alpha2 by @fontawesome - https://fontawesome.com License - https://fontawesome.com/license (Commercial License) --><path d="M365.256 125.254L258.746 18.746C246.744 6.742 230.465 0 213.49 0H64C28.654 0 0 28.654 0 64V448C0 483.346 28.654 512 64 512H320C355.348 512 384 483.346 384 448V170.51C384 153.535 377.258 137.258 365.256 125.254ZM224 34.076C228.477 35.643 232.666 37.922 236.119 41.375L342.627 147.879C346.08 151.332 348.357 155.523 349.924 160H240C231.188 160 224 152.828 224 144V34.076ZM352 448C352 465.645 337.645 480 320 480H64C46.355 480 32 465.645 32 448V64C32 46.355 46.355 32 64 32H192V144C192 170.469 213.531 192 240 192H352V448ZM182.781 249.516C177.188 246.891 170.531 247.75 165.75 251.703L122.219 288H80C71.156 288 64 295.156 64 304V368C64 376.844 71.156 384 80 384H122.219L165.75 420.297C168.688 422.734 172.312 424 176 424C178.312 424 180.625 423.5 182.781 422.484C188.406 419.859 192 414.203 192 408V264C192 257.797 188.406 252.141 182.781 249.516ZM160 373.844L138.25 355.703C135.375 353.312 131.75 352 128 352H96V320H128C131.75 320 135.375 318.688 138.25 316.297L160 298.156V373.844ZM288 336C288 367.422 272.625 396.906 246.844 414.875C239.594 419.938 237.812 429.906 242.875 437.156C246 441.609 250.969 444 256 444C259.188 444 262.375 443.062 265.156 441.125C299.5 417.172 320 377.875 320 336S299.5 254.828 265.156 230.875C258 225.891 247.969 227.578 242.875 234.844C237.812 242.094 239.594 252.062 246.844 257.125C272.625 275.094 288 304.578 288 336ZM234.125 287.609C227.281 282.063 217.219 283.016 211.625 289.875C206.031 296.719 207.031 306.797 213.875 312.391C220.219 317.578 224 326.406 224 336S220.219 354.422 213.875 359.609C207.031 365.203 206.031 375.281 211.625 382.125C214.781 386.001 219.375 388 224 388C227.562 388 231.156 386.812 234.125 384.391C247.812 373.188 256 355.094 256 336S247.812 298.812 234.125 287.609Z"/></svg>
